images/icons/svg/icon-headphones.svg

<?xml version="1.0" encoding="UTF-8"?>
<svg width="28px" height="28px" viewBox="0 0 28 28" version="1.1" xmlns="http://www.w3.org/2000/svg" xmlns:xlink="http://www.w3.org/1999/xlink">
	<title>icon-headphones</title>
	<path id="icon-headphones" stroke="none" fill-rule="evenodd" fill="#000000" d="m 25.059155,25.822685 c -0.06856,0.334261 -0.385385,0.547641 -0.716753,0.487726 l -0.65131,-0.115624 c -0.331368,-0.05886 -0.557821,-0.37 -0.508998,-0.706362 0.02647,-0.185822 0.05887,-0.412953 0.09684,-0.678844 l -1.084114,0.09699 -0.281507,1.796388 c -0.05402,0.343721 -0.372919,0.579175 -0.712598,0.524516 l -2.251019,-0.30588 c -0.339707,-0.05466 -0.571354,-0.377359 -0.518376,-0.72108 l 1.430389,-9.136456 c 0.05402,-0.343721 0.372919,-0.579175 0.712598,-0.524516 l 2.251019,0.30588 c 0.339679,0.05466 0.572364,0.377357 0.518347,0.721078 l -0.279429,1.785877 0.923815,0.499201 c 0,0 0.313511,-2.191348 0.490391,-3.428185 0.219182,-1.412753 0.154468,-2.898374 -0.02908,-4.25499 C 24.192788,10.720989 23.591339,9.208407 22.638785,7.8944896 21.692463,6.5795211 20.431394,5.4054045 18.924135,4.6212587 17.687403,3.982651 16.532338,3.677436 15.278045,3.477625 14.375422,3.3479244 13.580583,3.3435811 12.649958,3.482881 11.375524,3.621529 10.129328,4.1317593 9.0568386,4.6233609 7.5506189,5.4096091 6.2895495,6.5826745 5.3442668,7.8986941 4.390674,9.2178672 3.7944187,10.714682 3.5336869,12.184167 c -0.2698791,1.463979 -0.1413109,2.815081 -0.024927,4.244479 0.190453,1.332059 0.524256,3.666706 0.524256,3.666706 L 5.40796,19.352374 5.1285303,17.566497 c -0.054016,-0.343721 0.1786688,-0.666419 0.5183473,-0.721078 l 2.2510193,-0.30588 c 0.3396785,-0.05466 0.6585816,0.180795 0.7125977,0.524516 l 1.4303894,9.136456 c 0.05298,0.343721 -0.1786689,0.666419 -0.5183474,0.721078 l -2.2510193,0.30588 C 6.9318388,27.282128 6.6129358,27.046674 6.5589196,26.702953 L 6.2774123,24.906565 4.7009085,24.765487 c 0.041095,0.287179 0.075986,0.530913 0.1042356,0.728137 0.048822,0.337414 -0.1776301,0.647499 -0.5089984,0.706362 L 3.6448356,26.316662 C 3.3134672,26.375526 2.9966417,26.162145 2.9280828,25.828936 2.6631959,24.54445 1.0821846,16.861713 1.0821846,16.861713 0.91718108,16.0503 0.85176215,15.214064 0.7726305,14.456718 0.7373122,13.465499 0.8214528,12.646666 0.9803849,11.70485 1.3065594,9.8737747 2.0523978,8.0080121 3.2334818,6.3671921 4.4083331,4.7284743 5.9768791,3.2768584 7.8508241,2.2961505 9.8105898,1.2718408 11.849049,0.85991783 13.924525,0.7646484 c 2.26764,0.005256 4.306749,0.5486919 6.205625,1.5293998 1.873945,0.9786057 3.44353,2.4302216 4.618381,4.0678882 1.183161,1.6460757 1.927961,3.493969 2.258291,5.3471186 0.180058,0.919247 0.210736,1.865012 0.207827,2.742409 -0.06153,0.869018 -0.188647,1.623655 -0.309596,2.405026 0,0 -1.581011,7.682761 -1.845898,8.966195 z"></path>
</svg>

<?xml version="1.0" encoding="UTF-8"?>
<svg width="28px" height="28px" viewBox="0 0 28 28" version="1.1" xmlns="http://www.w3.org/2000/svg" xmlns:xlink="http://www.w3.org/1999/xlink">
    <!-- Generator: Sketch 42 (36781) - http://www.bohemiancoding.com/sketch -->
    <title>icon-headphones</title>
    <desc>Created with Sketch.</desc>
    <defs></defs>
    <g id="Page-1" stroke="none" stroke-width="1" fill="none" fill-rule="evenodd">
        <g id="icon-headphones" fill-rule="nonzero" fill="#000000">
            <path d="M23.9880594,19.8515747 C24.1371935,18.8092262 24.30157,17.6602272 24.4784502,16.42339 L24.5179236,16.1500951 L24.5366215,16.0123966 L24.5418153,15.9777092 L24.5449316,15.960891 C24.5376602,16.0176523 24.5625908,15.8095278 24.5303888,16.0828226 L24.5335051,16.0134477 C24.5428541,15.8263459 24.5511643,15.6381929 24.5605132,15.4479377 C24.5833662,15.0684784 24.6062192,14.68061 24.630111,14.2874859 L24.6394599,14.139276 L24.6415375,14.1024863 L24.6425762,14.0835659 C24.6415375,14.37473 24.6415375,14.1539919 24.6415375,14.2139065 L24.6373824,14.139276 L24.6228396,13.8397029 L24.5927152,13.2342497 C24.5781723,12.8148473 24.4898767,12.5331434 24.4493646,12.1684 C24.1927879,10.7209886 23.5913388,9.208407 22.6387847,7.8944896 C21.6924633,6.5795211 20.4313938,5.4054045 18.9241354,4.6212587 C18.1668705,4.2449527 17.3794812,3.893874 16.5411921,3.7151813 C16.1308771,3.5848407 15.7008254,3.5512044 15.2780451,3.477625 C15.0671744,3.4324262 14.850071,3.4397842 14.6350451,3.4250683 L14.3130258,3.4082502 L14.1520161,3.3998411 L14.0709918,3.3945854 L14.0304797,3.3924832 L14.0107431,3.391432 C14.033596,3.3903809 13.9317964,3.3924832 14.0554103,3.3893298 C13.5921179,3.422966 13.0529951,3.4177104 12.6499515,3.4828807 C12.251063,3.5575112 11.8625622,3.5848407 11.4408207,3.7162324 C10.6014928,3.8959763 9.8141035,4.247055 9.0568386,4.6233609 C7.5506189,5.4096091 6.2895495,6.5826745 5.3442668,7.8986941 C4.390674,9.2178672 3.7944187,10.7146818 3.5336869,12.184167 C3.4910973,12.5552172 3.3996853,12.9157562 3.3913751,13.2794485 C3.3841037,13.6168625 3.3332039,14.060441 3.3570957,14.2927416 C3.3799487,14.6869168 3.4028016,15.073734 3.4256546,15.4542445 C3.4350036,15.6444997 3.4433138,15.8326527 3.4526627,16.0187034 L3.4547402,16.054442 L3.4547402,16.0712601 C3.4703218,16.2026518 3.4350036,15.9125389 3.4401974,15.9493286 L3.4495464,16.0176523 L3.4692831,16.1553508 L3.5087564,16.4286456 C3.6992094,17.7607048 3.8750731,18.9907401 4.0330123,20.0953522 L5.40796,19.3523738 L5.1285303,17.5664973 C5.0745142,17.2227765 5.3071991,16.9000784 5.6468776,16.8454194 L7.8978969,16.5395395 C8.2375754,16.4848805 8.5564785,16.7203345 8.6104946,17.0640553 L10.0408839,26.200511 C10.0938613,26.5442318 9.8622151,26.8669299 9.5225366,26.9215889 L7.2715173,27.2274688 C6.9318388,27.2821278 6.6129358,27.0466738 6.5589196,26.702953 L6.2774123,24.9065652 L4.7009085,24.7654874 C4.7420038,25.0526656 4.7768947,25.2964001 4.8051441,25.4936243 C4.8539664,25.8310382 4.627514,26.1411227 4.2961457,26.1999862 L3.6448356,26.3166621 C3.3134672,26.3755256 2.9966417,26.1621454 2.9280828,25.828936 C2.6631959,24.5444504 1.9890327,21.2670149 1.0821846,16.8617128 L1.0271297,16.5915714 L0.9990828,16.454924 L0.98454,16.3866003 L0.9596095,16.1774246 C0.9377953,15.9913739 0.9159811,15.8042721 0.8941668,15.615068 C0.8536547,15.2356087 0.8131426,14.8498425 0.7726305,14.4567185 C0.7373122,13.4654992 0.8214528,12.6466659 0.9803849,11.7048499 C1.3065594,9.8737747 2.0523978,8.0080121 3.2334818,6.3671921 C4.4083331,4.7284743 5.9768791,3.2768584 7.8508241,2.2961505 C8.7919517,1.8231403 9.7756689,1.3953288 10.8196349,1.1651304 C11.3203231,1.0116649 11.8947641,0.9485969 12.4453134,0.863455 C12.9958626,0.7877734 13.4269531,0.800387 13.924525,0.7646484 C16.1921646,0.7699041 18.2312744,1.3133403 20.1301499,2.2940482 C22.0040949,3.2726539 23.5736797,4.7242698 24.748531,6.3619364 C25.9316925,8.0080121 26.6764921,9.8559054 27.0068217,11.7090545 C27.069148,12.1757579 27.174064,12.7055294 27.1865293,13.1007557 L27.2166537,13.70726 L27.2311965,14.0068331 L27.2353516,14.0804125 L27.2343128,14.2485939 L27.233274,14.2664632 L27.2291189,14.3032529 L27.2145761,14.4514628 C27.1730252,14.8435357 27.1325131,15.230353 27.0930398,15.6087612 C27.0701868,15.7979653 27.0483726,15.9861183 27.0265584,16.172169 L27.019287,16.2415438 L26.9985115,16.3981627 L26.9953952,16.416032 L26.9881238,16.4496683 L26.9600769,16.5863157 L26.905022,16.8564571 C25.9981739,21.2617592 25.3240108,24.5391947 25.0591239,25.8226292 C24.9905649,26.1568897 24.6737394,26.3702699 24.3423711,26.3103553 L23.6910609,26.1947306 C23.3596926,26.1358671 23.1332403,25.8247314 23.1820626,25.4883686 C23.20853,25.3025471 23.2409357,25.0754162 23.2789051,24.8095503 L22.1947914,24.9065652 L21.9132841,26.702953 C21.859268,27.0466738 21.5403649,27.2821278 21.2006864,27.2274688 L18.9496671,26.9215889 C18.6099886,26.8669299 18.3783424,26.5442318 18.4313198,26.200511 L19.8617091,17.0640553 C19.9157252,16.7203345 20.2346283,16.4848805 20.5743068,16.5395395 L22.8253261,16.8454194 C23.1650046,16.9000784 23.3976896,17.2227765 23.3436734,17.5664973 L23.0642437,19.3523738 L23.9880594,19.8515747 Z" id="Combined-Shape"></path>
        </g>
    </g>
</svg>
